X:50
T:Treble Mr Condiff.2voices. HA.049
M:3/4
L:1/4
Q:3/4=60
C:in Hand B
C:Henry Atkinson’s original MS,Hartburn,N’umberland,1694.
O:England
A:Hartburn,Northumberland
H:1/4
Z:vmp.Chris Partington.Jan.2004
K:F
[V:1]|:fed|a”#”cd|efd|e/d/e/f/e|
[V:2]|:def|eef|gaf|g/a/g/f/e|
%
[V:1]fed|a”^#”cd|”^illegible inserted notes in MS”zzz|zzz:|
[V:2]def|eef|e”^#”c2|d3:|
%
[V:1]|:aga|bag|f/e/f/g/f/g/|a/g/a/b/a/b/|
[V:2]|:fef|gfg|a/g/a/b/a/g/|f/e/f/g/f/g/|
%
[V:1]aga|bag|a3/4b/4g3/2a/|a3:|
[V:2]fef|gfe|f3/4g/4 e>f|f3:|

